X: 27
T:The Top of the Cork Road (Father O'Flynn)
N: page 8
N: heptatonic
N: matches 170
R: Jig
S:EF
M:6/8
K:D
A|"D"dAF DFA|"D"ded "A7"cBA|"D"dcd "A/c#"efg|"Bm"fdf "A7"ecA| "D"dAF DFA|
"D"ded "A/c#"cBA|"Bm"dcd "A7"efg|"D"fdc d2:|\
 g|"D"fdf fga|"A"ecA ABc|
"Bm"dcd "E7"Bed|"A7"cBA "D7"A2c|"G"BGB B cd|\
"D"AFD DFA|"D"dcd "A7"efg|"D"fdc d2:|
